X:2969
T:the Tenpenny Bit
O:ireland
R:Jig
M:6/8
K:AMix
A|\
eAA eAA|BAB GBd|eAA eAA|def gfg|\
eAA eAA|BAB GBd|edB gBB|BAA A2 :: B |\
A2a aga|bge dBG|A2a aga|bag a2d|\
e2a aga|bge dBd|edB gBB|BAA A2:|
